X:1
T:Winchcombe, 10.10.10.10
T:Winchcombe, 10.10.10.10
T:John Baptiste Calkin, 1867
T:Public Domain Courtesy of the Cyber Hymnal™
C:John Baptiste Calkin, 1867
Z:Public Domain
Z:Courtesy of the Cyber Hymnal™
%%score ( 1 2 ) ( 3 4 )
L:1/8
Q:1/4=117
M:4/4
K:A
V:1 treble 
V:2 treble 
V:3 bass 
V:4 bass 
V:1
 E2 | [EA]4 [FA]4 | [EA]4 z4 | [Ec]2 [Ec][Ec] [^Dc]2 A2 | [Ge]6 E2 | [EF]2 [DF]2 [DG]2 [CA]2 | %6
 [EB]4 [Ec]4 | B4 [^DB]4 | [EB]6 [EB]2 | [Ee]4 [^DB]4 | [EB]6 [^DB]2 | [Ee]2 [^DB]2 [EB]2 [DB]2 | %12
 [EB]4 [FB]4 | [^Ec]2 [Fc]2 [Gc]2 [Gc]2 | [Fc]4 [A^d]4 | ([Ae]4 [Gc]2) [GB]2 | A6 |] %17
V:2
 E2 | x8 | x8 | x6 A2 | x6 E2 | x8 | x8 | (E2 C2) x4 | x8 | x8 | x8 | x8 | x8 | x8 | x8 | x8 | %16
 A6 |] %17
V:3
 [A,,C]2 | [A,,C]4 [D,D]4 | [A,,C]4 z4 | A,2 A,A, [F,A,]2 [F,A,]2 | [E,B,]6 [C,A,]2 | %5
 [D,A,]2 [D,A,]2 [B,,B,]2 [F,A,]2 | [E,G,]4 [A,,A,]4 | [B,,F,]4 [B,,F,]4 | [E,G,]6 [E,G,]2 | %9
 [E,G,]4 [F,A,]4 | [G,B,]6 [F,A,]2 | [E,G,]2 [F,A,]2 [G,B,]2 [F,A,]2 | [E,G,]4 [D,G,]4 | %13
 [C,G,]2 [^D,G,]2 [E,C]2 [E,B,]2 | [F,A,]4 [F,B,]4 | (C4 E2) [E,D]2 | [A,,C]6 |] %17
V:4
 x2 | x8 | x8 | A,2 A,A, x4 | x8 | x8 | x8 | x8 | x8 | x8 | x8 | x8 | x8 | x8 | x8 | E,6 x2 | x6 |] %17

